X:1
T:Kansas City Blues
M:4/4
L:1/8
K:D
 =c2 Ac-c c3| =c2 cA c4| z2 BA =cA BA| d2 BA-A DE D| =FD ED F D3| z4 z2 AA|\
 AG =FD F D3| z4 z AB A| =c2 cA cA G2-| G^G AAA-=G =F2-| E3 D- D2 z2|\
